X: 21
T: L'Escapade
R: reel, polka
M: 2/4
L: 1/16
Z: 2010 John Chambers <jc:trillian.mit.edu> (tune)
Z: 2015 John Chambers <jc:trillian.mit.edu> (dance)
S: http://archive.org/details/imslp-american-country-dances-1785-various
S: http://imslp.org/wiki/24_American_Country_Dances_(Cantelo,_Hezekiah)
B: Cantelo ed. "Twenty Four American Country Dances", London 1785 (Longman & Broderip)
K: Bb
% - - - - - - - - - - - - - - - - - - - - - - - - - - - - -
V: 1
|: .B2.B2 (cB).c.A | .B2.B2 (cB).c.A | .B2.B2.c2.c2 | .d2.d2 (ec).A.F |\
   .B2.B2 (cB).c.A | .B2.B2 (cB).c.A | .B2.B2.c2.c2 | de.c.A [B2D2]z2 :|
|: B2b4(fd) | c2e4(dc) | B2d2B2d2 | cBAG FEDC |\
   d2b4(fd) | c2e4(dc) | B2d2B2d2 | (fe)dc B2z2 :|
|: F3ED2F2 | G2G2 E2z2 | c4 {B}A2GF | (Bc).d.c [B2D2][B2D2] |\
   F3ED2F2 | .G2.G2 .E2z2 | c2c2 (AB).c.A. | B4 [B4B,4] :|
% - - - - - - - - - - - - - - - - - - - - - - - - - - - - -
V: 2 clef=bass middle=d
|: [b4B4]f2F2 | [b4B4]f2F2 | B4f4 | b4f2F2 | [b4B4]f2F2 | B4f2F2 | B2d2e2f2 | b2f2B4 :|
|: [b8f8d8B8] | e8 | d4B4 | f4F4 | [b8f8d8B8] | e8 | d4b4 | f2F2 B4 :|
|: "p"d4B4 | e4g4 | f4F4 | b2f2 d2B2 | "f"d4B4 | e4g4 | f4F4 | b8 :|
% - - - - - - - - - - Dance description - - - - - - - - - -
%%begintext align
%% 1st 2d and 3d couple ballance with pas Rigadoon, hands six half
%% round and back again: lead down the middle . up again, and cast off,
%% Allemande right and left hand.
%%endtext

%%sep 2 1 500

